X:70
T:Brandon Waltz
O:No 70 Pages 30-31 Wm Clarke MS  Feltwell, Norfolk
N:WC's address is given "Feltwell, nr Brandon"	
N:Fine sign added.
I:abc2nwc
M:3/8
L:1/16
K:C
z2|e2e2e2|g4e2|f2f2d2|e2g2c'2|
e2e2f2|g2g2e2|f2d2B2|c2e2g2|
e2e2f2|g4e2|f2f2d2|e2g2c'2|
e2e2f2|g2c'2a2|f2d2B2|c4:|
|:d2|g4d2|b4g2|a2c'2^f2|g2b2d'2|
g2g2d2|b2b2g2|a2c'2^f2|g4d2|
g2d2B2|b2g2d2|c'2a2^f2|g2b2d'2|
g2d2B2|b2g2d'2|c'2a2^f2|g2^f2=f2||]


